icons/mobile/24/svg/notification-slash-24.svg

<svg width="24" height="24" viewBox="0 0 24 24" fill="none" xmlns="http://www.w3.org/2000/svg">
<path fill-rule="evenodd" clip-rule="evenodd" d="M2.25579 1.25579C2.5975 0.914085 3.15237 0.914085 3.49407 1.25579L21.7441 19.5058C22.0858 19.8475 22.0858 20.4024 21.7441 20.7441C21.4024 21.0858 20.8475 21.0858 20.5058 20.7441L17.998 18.2363V18.871C17.998 19.732 17.5067 20.4792 16.7167 20.8212C16.4389 20.9421 16.149 21.0009 15.8632 21.0009C15.3382 21.0009 14.8259 20.8028 14.4199 20.4208L11.3056 17.497C9.11481 17.47 6.90801 17.3141 4.73822 17.0351C3.17722 16.8331 1.99993 15.4976 1.99993 13.9296V6.0722C1.99993 5.03772 2.50835 4.10712 3.29681 3.53509L2.25579 2.49407C1.91408 2.15237 1.91408 1.5975 2.25579 1.25579ZM4.56927 4.80755C4.08347 5.02024 3.74993 5.51318 3.74993 6.0722V13.9296C3.74993 14.6206 4.2709 15.2097 4.96185 15.2988C7.17485 15.5838 9.42904 15.7359 11.662 15.7499C11.883 15.751 12.0948 15.8363 12.2548 15.9872L15.6181 19.1454C15.774 19.2901 15.9394 19.2508 16.0234 19.2148C16.1084 19.1777 16.2499 19.0846 16.2499 18.8701V16.4882L12.7509 12.9892C12.7097 12.9951 12.6678 12.9999 12.6249 12.9999H7.87493C7.39168 12.9999 6.99993 12.6082 6.99993 12.1249C6.99993 11.6417 7.39168 11.2499 7.87493 11.2499H11.0117L8.51165 8.74993H7.87493C7.39193 8.74993 6.99993 8.35793 6.99993 7.87493C6.99993 7.69427 7.05443 7.5261 7.14837 7.38665L4.56927 4.80755Z" fill="black"/>
<path d="M7.07708 2.72064C11.1249 2.36966 15.2368 2.4478 19.2626 2.96575C20.8226 3.16775 21.9999 4.50322 21.9999 6.07122V13.9286C21.9999 14.9326 21.5185 15.836 20.7685 16.412L19.5068 15.1503C19.9488 14.9213 20.2499 14.4566 20.2499 13.9286V6.07122C20.2499 5.38025 19.729 4.79112 19.038 4.70208C16.712 4.40208 14.3439 4.24993 11.9999 4.24993C10.9059 4.24993 9.80591 4.2855 8.70892 4.3515L7.07708 2.72064Z" fill="black"/>
<path d="M16.1249 6.99993C16.6079 6.99996 16.9999 7.39195 16.9999 7.87493C16.9999 8.35792 16.6079 8.74991 16.1249 8.74993H13.1064L11.3564 6.99993H16.1249Z" fill="black"/>
</svg>

<!-- This Source Code Form is subject to the terms of the Mozilla Public
   - License, v. 2.0. If a copy of the MPL was not distributed with this
   - file, You can obtain one at http://mozilla.org/MPL/2.0/. -->
<svg xmlns="http://www.w3.org/2000/svg" width="24" height="24" fill="none" viewBox="0 0 24 24">
    <path fill="#000" fill-rule="evenodd" d="M2.256 1.256a.876.876 0 0 1 1.238 0l18.25 18.25a.876.876 0 0 1-1.238 1.238l-2.508-2.508v.635c0 .861-.491 1.608-1.281 1.95a2.1 2.1 0 0 1-2.297-.4l-3.114-2.924a57 57 0 0 1-6.568-.462A3.144 3.144 0 0 1 2 13.93V6.072c0-1.034.508-1.965 1.297-2.537l-1.041-1.04a.876.876 0 0 1 0-1.24m2.313 3.552a1.38 1.38 0 0 0-.82 1.264v7.858c0 .69.522 1.28 1.213 1.369a55 55 0 0 0 6.7.45.87.87 0 0 1 .593.238l3.363 3.158a.36.36 0 0 0 .405.07.36.36 0 0 0 .227-.345v-2.382l-3.5-3.499a1 1 0 0 1-.125.01h-4.75a.875.875 0 1 1 0-1.75h3.137l-2.5-2.5h-.637a.875.875 0 0 1-.727-1.362z" clip-rule="evenodd" />
    <path fill="#000" d="M7.077 2.72a57 57 0 0 1 12.186.246A3.144 3.144 0 0 1 22 6.07v7.858a3.13 3.13 0 0 1-1.232 2.483l-1.261-1.262c.442-.229.743-.693.743-1.221V6.07c0-.69-.521-1.28-1.212-1.369A55 55 0 0 0 12 4.25c-1.094 0-2.194.035-3.291.101z" />
    <path fill="#000" d="M16.125 7a.875.875 0 0 1 0 1.75h-3.019L11.356 7z" />
</svg>
